symbols/web/do_not_step/materialsymbolsoutlined/do_not_step_wght600grad200fill1_20px.svg

<svg xmlns="http://www.w3.org/2000/svg" height="20" width="20"><path d="m17.604 14.958-1.875-1.896 4.479-4.458 1.854 1.875Zm-2.729-2.937L7.75 4.896 12.125.5l7.146 7.125Zm2.396 8.041-5.104-5.124-3.229 3.208H-.771v-3.063q0-.833.323-1.489.323-.656 1.073-.886.521-.166 1.042-.375.521-.208 1.104-.5l1.5 1.521q.062.084.219.073.156-.01.218-.073.084-.062.084-.208t-.084-.229L3.25 11.479q.271-.229.5-.427.229-.198.479-.49l1.438 1.459q.083.062.208.062.125 0 .208-.062.105-.083.105-.219 0-.135-.084-.219l-1.479-1.479q.167-.25.302-.552.135-.302.281-.719L7 10.688q.125.062.229.062.104 0 .209-.083.083-.084.083-.219 0-.136-.063-.198L-.5 2.292 1.125.688l17.729 17.75Z"/></svg>

<svg xmlns="http://www.w3.org/2000/svg" height="20" width="20"><path d="M17.604 14.958 15.729 13.062 20.208 8.604 22.062 10.479ZM14.875 12.021 7.75 4.896 12.125 0.5 19.271 7.625ZM17.271 20.062 12.167 14.938 8.938 18.146H-0.771V15.083Q-0.771 14.25 -0.448 13.594Q-0.125 12.938 0.625 12.708Q1.146 12.542 1.667 12.333Q2.188 12.125 2.771 11.833L4.271 13.354Q4.333 13.438 4.49 13.427Q4.646 13.417 4.708 13.354Q4.792 13.292 4.792 13.146Q4.792 13 4.708 12.917L3.25 11.479Q3.521 11.25 3.75 11.052Q3.979 10.854 4.229 10.562L5.667 12.021Q5.75 12.083 5.875 12.083Q6 12.083 6.083 12.021Q6.188 11.938 6.188 11.802Q6.188 11.667 6.104 11.583L4.625 10.104Q4.792 9.854 4.927 9.552Q5.062 9.25 5.208 8.833L7 10.688Q7.125 10.75 7.229 10.75Q7.333 10.75 7.438 10.667Q7.521 10.583 7.521 10.448Q7.521 10.312 7.458 10.25L-0.5 2.292L1.125 0.688L18.854 18.438Z"/></svg>
